svg/transport/front_windshield_defroster_fill.svg

<?xml version="1.0" encoding="UTF-8"?>
<svg width="24px" height="24px" viewBox="0 0 24 24" version="1.1" xmlns="http://www.w3.org/2000/svg" xmlns:xlink="http://www.w3.org/1999/xlink">
    <title>front_windshield_defroster_fill</title>
    <g id="页面-1" stroke="none" stroke-width="1" fill="none" fill-rule="evenodd">
        <g id="Transport" transform="translate(-864.000000, -144.000000)" fill-rule="nonzero">
            <g id="front_windshield_defroster_fill" transform="translate(864.000000, 144.000000)">
                 <path d="M24,0 L24,24 L0,24 L0,0 L24,0 Z M12.5934901,23.257841 L12.5819402,23.2595131 L12.5108777,23.2950439 L12.4918791,23.2987469 L12.4918791,23.2987469 L12.4767152,23.2950439 L12.4056548,23.2595131 C12.3958229,23.2563662 12.3870493,23.2590235 12.3821421,23.2649074 L12.3780323,23.275831 L12.360941,23.7031097 L12.3658947,23.7234994 L12.3769048,23.7357139 L12.4804777,23.8096931 L12.4953491,23.8136134 L12.4953491,23.8136134 L12.5071152,23.8096931 L12.6106902,23.7357139 L12.6232938,23.7196733 L12.6232938,23.7196733 L12.6266527,23.7031097 L12.609561,23.275831 C12.6075724,23.2657013 12.6010112,23.2592993 12.5934901,23.257841 L12.5934901,23.257841 Z M12.8583906,23.1452862 L12.8445485,23.1473072 L12.6598443,23.2396597 L12.6498822,23.2499052 L12.6498822,23.2499052 L12.6471943,23.2611114 L12.6650943,23.6906389 L12.6699349,23.7034178 L12.6699349,23.7034178 L12.678386,23.7104931 L12.8793402,23.8032389 C12.8914285,23.8068999 12.9022333,23.8029875 12.9078286,23.7952264 L12.9118235,23.7811639 L12.8776777,23.1665331 C12.8752882,23.1545897 12.8674102,23.1470016 12.8583906,23.1452862 L12.8583906,23.1452862 Z M12.1430473,23.1473072 C12.1332178,23.1423925 12.1221763,23.1452606 12.1156365,23.1525954 L12.1099173,23.1665331 L12.0757714,23.7811639 C12.0751323,23.7926639 12.0828099,23.8018602 12.0926481,23.8045676 L12.108256,23.8032389 L12.3092106,23.7104931 L12.3186497,23.7024347 L12.3186497,23.7024347 L12.3225043,23.6906389 L12.340401,23.2611114 L12.337245,23.2485176 L12.337245,23.2485176 L12.3277531,23.2396597 L12.1430473,23.1473072 Z" id="MingCute" fill-rule="nonzero"></path>
                <path d="M3.14614,5.73726 C4.38914,5.0756 7.1591,4 11.9999,4 C16.8408,4 19.6107,5.0756 20.8537,5.73725 C21.7486,6.21358 21.9805,7.23309 21.6817,8.03011 L19.1055,14.9 C18.8226,15.6542 18.0094,16.0362 17.2632,15.8207 C16.8115,15.6902 16.0585,15.4913 15.1553,15.322 C16.2174,16.8119 16.1914,18.8615 15.014,20.3332 L14.7809,20.6246 C14.4359,21.0558 13.8066,21.1257 13.3753,20.7807 C12.9441,20.4357 12.8742,19.8064 13.2192,19.3752 L13.4523,19.0838 C14.1398,18.2243 14.0712,16.9853 13.2929,16.207 C12.9362,15.8503 12.657,15.4434 12.4563,15.008 C13.4039,15.0406 14.3408,15.1693 15.1553,15.322 C15.0229,15.1363 14.8731,14.959 14.707,14.7929 C13.9288,14.0146 13.8601,12.7756 14.5477,11.9161 L14.7808,11.6247 C15.1258,11.1935 15.0559,10.5642 14.6246,10.2192 C14.1934,9.87416 13.5641,9.94408 13.2191,10.3753 L12.986,10.6667 C11.9769,11.928 11.8137,13.6138 12.4563,15.008 C12.3044,15.0028 12.152,15 11.9999,15 C11.6445,15 11.2881,15.0151 10.9367,15.0415 C12.216,16.5457 12.2671,18.7668 11.014,20.3332 L10.7809,20.6246 C10.4359,21.0558 9.8066,21.1257 9.37534,20.7807 C8.94407,20.4357 8.87415,19.8064 9.21916,19.3752 L9.45226,19.0838 C10.1398,18.2243 10.0712,16.9853 9.29292,16.207 C9.03457,15.9486 8.81682,15.6639 8.64014,15.3611 C9.3303,15.2251 10.1204,15.1029 10.9367,15.0415 C10.8642,14.9563 10.7874,14.8733 10.707,14.7929 C9.92875,14.0146 9.86013,12.7756 10.5477,11.9161 L10.7808,11.6247 C11.1258,11.1935 11.0559,10.5642 10.6246,10.2192 C10.1934,9.87416 9.56408,9.94408 9.21907,10.3753 L8.98598,10.6667 C7.89,12.0367 7.79172,13.9072 8.64014,15.3611 C7.82806,15.5211 7.1538,15.7002 6.73669,15.8207 C5.99046,16.0362 5.17726,15.6542 4.89443,14.9 L2.31823,8.03011 C2.01935,7.23309 2.25132,6.21358 3.14614,5.73726 Z" id="路径" fill="#09244B"></path>
            </g>
        </g>
    </g>
</svg>

<svg xmlns="http://www.w3.org/2000/svg" width="24" height="24"><g fill="none" fill-rule="nonzero"><path d="M24 0v24H0V0h24ZM12.593 23.258l-.011.002-.071.035-.02.004-.014-.004-.071-.035c-.01-.004-.019-.001-.024.005l-.004.01-.017.428.005.02.01.013.104.074.015.004.012-.004.104-.074.012-.016.004-.017-.017-.427c-.002-.01-.009-.017-.017-.018Zm.265-.113-.013.002-.185.093-.01.01-.003.011.018.43.005.012.008.007.201.093c.012.004.023 0 .029-.008l.004-.014-.034-.614c-.003-.012-.01-.02-.02-.022Zm-.715.002a.023.023 0 0 0-.027.006l-.006.014-.034.614c0 .012.007.02.017.024l.015-.002.201-.093.01-.008.004-.011.017-.43-.003-.012-.01-.01-.184-.092Z"/><path fill="#09244B" d="M3.146 5.737C4.39 5.076 7.16 4 12 4c4.84 0 7.61 1.076 8.854 1.737.895.477 1.127 1.496.828 2.293l-2.576 6.87a1.517 1.517 0 0 1-1.843.92c-.452-.13-1.205-.329-2.108-.498a4.161 4.161 0 0 1-.141 5.011l-.233.292a1 1 0 0 1-1.562-1.25l.233-.291a2.16 2.16 0 0 0-.16-2.877 4.151 4.151 0 0 1-.836-1.199 18.28 18.28 0 0 1 2.7.314 4.184 4.184 0 0 0-.449-.53 2.16 2.16 0 0 1-.16-2.876l.234-.291a1 1 0 1 0-1.562-1.25l-.233.292a4.161 4.161 0 0 0-.53 4.341 13.35 13.35 0 0 0-1.52.034 4.16 4.16 0 0 1 .078 5.291l-.233.292a1 1 0 0 1-1.562-1.25l.233-.291a2.16 2.16 0 0 0-.16-2.877 4.163 4.163 0 0 1-.652-.846c.69-.136 1.48-.258 2.297-.32a4.217 4.217 0 0 0-.23-.248 2.16 2.16 0 0 1-.16-2.877l.234-.291a1 1 0 1 0-1.562-1.25l-.233.292a4.161 4.161 0 0 0-.346 4.694c-.812.16-1.486.34-1.903.46a1.517 1.517 0 0 1-1.843-.921L2.318 8.03c-.299-.797-.067-1.816.828-2.293Z"/></g></svg>
